img/logotype.svg

<svg width="149" height="22" viewBox="0 0 149 22" fill="none" xmlns="http://www.w3.org/2000/svg">
<path d="M141.614 13.4298C141.614 12.4988 141.972 11.6787 142.688 10.9694C143.449 10.2601 144.367 9.9054 145.441 9.9054C146.381 9.9054 147.209 10.2601 147.926 10.9694C148.642 11.6787 149 12.4988 149 13.4298C149 14.4937 148.664 15.4025 147.993 16.1562C147.321 16.8655 146.471 17.2201 145.441 17.2201C144.367 17.2201 143.449 16.8655 142.688 16.1562C141.972 15.4025 141.614 14.4937 141.614 13.4298Z" fill="#878787"/>
<path d="M10.5879 17.0207H0V0.263327H2.9733V14.2677H10.5879V17.0207Z" fill="black"/>
<path d="M20.6719 14.0044L21.4696 15.9434C20.3898 16.8371 19.0039 17.284 17.3118 17.284C15.5713 17.284 14.1532 16.7653 13.0573 15.728C11.9937 14.7066 11.4619 13.342 11.4619 11.6344C11.4619 10.0384 11.9856 8.69786 13.0331 7.61262C14.0806 6.52738 15.4746 5.98477 17.2151 5.98477C18.6494 5.98477 19.8661 6.45557 20.8652 7.39717C21.8644 8.33877 22.364 9.53573 22.364 10.988C22.364 11.6264 22.3076 12.1211 22.1948 12.4723H14.3385C14.4513 13.2543 14.7978 13.8687 15.3779 14.3156C15.9742 14.7624 16.7155 14.9859 17.6019 14.9859C18.8105 14.9859 19.8339 14.6587 20.6719 14.0044ZM17.0942 8.28292C15.5149 8.28292 14.5641 9.06493 14.2418 10.6289H19.5841C19.6002 9.94269 19.3746 9.38411 18.9072 8.95321C18.456 8.50635 17.8517 8.28292 17.0942 8.28292Z" fill="black"/>
<path d="M25.475 15.704C24.3952 14.6347 23.8554 13.2782 23.8554 11.6344C23.8554 9.99057 24.3952 8.642 25.475 7.58869C26.5547 6.51941 27.989 5.98477 29.7778 5.98477C31.5505 5.98477 32.9767 6.51941 34.0565 7.58869C35.1523 8.642 35.7002 9.99057 35.7002 11.6344C35.7002 13.2622 35.1523 14.6188 34.0565 15.704C32.9606 16.7573 31.5344 17.284 29.7778 17.284C27.989 17.284 26.5547 16.7573 25.475 15.704ZM27.6747 9.43199C27.1107 10.0065 26.8287 10.7407 26.8287 11.6344C26.8287 12.5281 27.1026 13.2702 27.6506 13.8607C28.2146 14.4353 28.9237 14.7225 29.7778 14.7225C30.648 14.7225 31.3571 14.4353 31.905 13.8607C32.4691 13.2862 32.7511 12.5441 32.7511 11.6344C32.7511 10.7407 32.4691 10.0065 31.905 9.43199C31.341 8.85745 30.6319 8.57019 29.7778 8.57019C28.9398 8.57019 28.2388 8.85745 27.6747 9.43199Z" fill="black"/>
<path d="M44.5743 11.7541H38.4826V9.1926H44.5743V11.7541Z" fill="black"/>
<path d="M55.2099 12.568C55.2099 12.0573 55.0165 11.6104 54.6297 11.2274C54.2591 10.8284 53.7917 10.5092 53.2277 10.2699C52.6636 10.0145 52.0432 9.72724 51.3664 9.40805C50.7056 9.07291 50.0932 8.72978 49.5292 8.37867C48.9652 8.01161 48.4897 7.50889 48.103 6.87051C47.7323 6.21618 47.547 5.46608 47.547 4.62024C47.547 3.32753 48.0224 2.23431 48.9732 1.34059C49.9562 0.446862 51.2374 0 52.8167 0C54.9601 0 56.5717 0.598475 57.6514 1.79543L56.056 3.99782C55.2018 3.16794 54.2027 2.75299 53.0585 2.75299C52.3333 2.75299 51.7531 2.92056 51.318 3.25571C50.899 3.59086 50.6895 4.03772 50.6895 4.5963C50.6895 4.88357 50.7459 5.15488 50.8587 5.41023C50.9715 5.64962 51.0924 5.84911 51.2213 6.00871C51.3664 6.1683 51.592 6.34385 51.8982 6.53537C52.2205 6.72688 52.4703 6.87051 52.6475 6.96627C52.8409 7.04606 53.1552 7.18172 53.5903 7.37323C54.0254 7.56474 54.3316 7.7004 54.5089 7.78019C55.218 8.09938 55.8384 8.43453 56.3702 8.78564C56.9665 9.13674 57.4419 9.63947 57.7964 10.2938C58.1671 10.9481 58.3524 11.6982 58.3524 12.5441C58.3524 13.9485 57.8125 15.0896 56.7328 15.9674C55.6531 16.8451 54.3074 17.284 52.6959 17.284C51.5678 17.284 50.4478 17.0526 49.3358 16.5898C48.2722 16.111 47.547 15.4646 47.1602 14.6507L48.8523 12.6398C49.3036 13.2303 49.8837 13.6931 50.5928 14.0283C51.318 14.3634 52.0351 14.531 52.7442 14.531C53.4855 14.531 54.0818 14.3555 54.533 14.0044C54.9843 13.6532 55.2099 13.1745 55.2099 12.568Z" fill="black"/>
<path d="M63.7608 17.0207H60.9809V0.263327H63.7608V7.2296C64.5666 6.44759 65.606 6.05658 66.8791 6.05658C69.8605 6.05658 71.3512 7.62858 71.3512 10.7726V17.0207H68.5713V11.1317C68.5713 10.3337 68.3618 9.71926 67.9427 9.28836C67.5238 8.85746 66.9275 8.642 66.1539 8.642C65.2192 8.642 64.4215 8.96917 63.7608 9.6235V17.0207Z" fill="black"/>
<path d="M77.3678 17.0207H74.5879V6.2481H77.3678V17.0207ZM74.2978 2.36996C74.2978 1.89118 74.459 1.50816 74.7813 1.22089C75.1197 0.917663 75.5387 0.76605 76.0383 0.76605C76.4734 0.76605 76.8441 0.917663 77.1503 1.22089C77.4726 1.52412 77.6338 1.90714 77.6338 2.36996C77.6338 2.88066 77.4726 3.29561 77.1503 3.6148C76.8441 3.93398 76.4734 4.09358 76.0383 4.09358C75.5387 4.09358 75.1197 3.93398 74.7813 3.6148C74.459 3.29561 74.2978 2.88066 74.2978 2.36996Z" fill="black"/>
<path d="M83.6612 21.8085H80.8813V6.2481H83.6612V7.27748C84.0157 6.89445 84.4992 6.58324 85.1116 6.34385C85.724 6.10446 86.3605 5.98477 87.0213 5.98477C88.52 5.98477 89.7125 6.49547 90.5989 7.51687C91.5014 8.55423 91.9526 9.87088 91.9526 11.4668C91.9526 13.1425 91.4208 14.531 90.3572 15.6322C89.2935 16.7334 87.9076 17.284 86.1994 17.284C85.1035 17.284 84.2575 17.1084 83.6612 16.7573V21.8085ZM86.151 8.57019C85.1841 8.57019 84.3541 8.96119 83.6612 9.7432V14.1001C84.3219 14.5151 85.0874 14.7225 85.9576 14.7225C86.8762 14.7225 87.6095 14.4273 88.1574 13.8368C88.7214 13.2463 89.0034 12.4802 89.0034 11.5386C89.0034 10.6449 88.7456 9.92673 88.2299 9.38411C87.7303 8.84149 87.0374 8.57019 86.151 8.57019Z" fill="black"/>
<path d="M97.1406 21.8085H94.3606V6.2481H97.1406V7.27748C97.4951 6.89445 97.9786 6.58324 98.591 6.34385C99.2034 6.10446 99.8399 5.98477 100.501 5.98477C101.999 5.98477 103.192 6.49547 104.078 7.51687C104.981 8.55423 105.432 9.87088 105.432 11.4668C105.432 13.1425 104.9 14.531 103.837 15.6322C102.773 16.7334 101.387 17.284 99.6788 17.284C98.5829 17.284 97.7368 17.1084 97.1406 16.7573V21.8085ZM99.6304 8.57019C98.6635 8.57019 97.8335 8.96119 97.1406 9.7432V14.1001C97.8013 14.5151 98.5668 14.7225 99.437 14.7225C100.356 14.7225 101.089 14.4273 101.637 13.8368C102.201 13.2463 102.483 12.4802 102.483 11.5386C102.483 10.6449 102.225 9.92673 101.709 9.38411C101.21 8.84149 100.517 8.57019 99.6304 8.57019Z" fill="black"/>
<path d="M111.031 17.0207H108.251V6.2481H111.031V17.0207ZM107.961 2.36996C107.961 1.89118 108.122 1.50816 108.444 1.22089C108.783 0.917663 109.202 0.76605 109.701 0.76605C110.136 0.76605 110.507 0.917663 110.813 1.22089C111.136 1.52412 111.297 1.90714 111.297 2.36996C111.297 2.88066 111.136 3.29561 110.813 3.6148C110.507 3.93398 110.136 4.09358 109.701 4.09358C109.202 4.09358 108.783 3.93398 108.444 3.6148C108.122 3.29561 107.961 2.88066 107.961 2.36996Z" fill="black"/>
<path d="M117.324 17.0207H114.544V6.2481H117.324V7.32535C118.13 6.47951 119.169 6.05658 120.443 6.05658C123.424 6.05658 124.915 7.60464 124.915 10.7008V17.0207H122.135V11.1795C122.135 9.48785 121.321 8.642 119.693 8.642C118.807 8.642 118.017 8.98513 117.324 9.67138V17.0207Z" fill="black"/>
<path d="M126.314 18.481C126.314 17.6351 126.628 16.9329 127.257 16.3743C127.885 15.7998 128.748 15.3928 129.844 15.1534C129.715 14.93 129.65 14.6826 129.65 14.4113C129.65 14.1081 129.731 13.8527 129.892 13.6453C129.086 13.3261 128.45 12.8473 127.982 12.2089C127.531 11.5546 127.305 10.8284 127.305 10.0305C127.305 8.92927 127.732 7.97969 128.587 7.18172C129.441 6.38375 130.561 5.98477 131.947 5.98477C132.994 5.98477 133.921 6.24012 134.727 6.75082L138.014 6.03264L138.111 8.23504L136.298 8.642C136.475 9.12079 136.564 9.58361 136.564 10.0305C136.564 11.1157 136.137 12.0573 135.282 12.8553C134.444 13.6213 133.333 14.0044 131.947 14.0044H131.753C131.721 14.132 131.705 14.2677 131.705 14.4113C131.705 14.6188 131.753 14.8023 131.85 14.9619H131.971C133.663 14.9619 135.025 15.2572 136.056 15.8477C137.104 16.4541 137.627 17.3319 137.627 18.481C137.627 19.63 137.104 20.5078 136.056 21.1143C135.025 21.7048 133.663 22 131.971 22C130.23 22 128.852 21.6968 127.837 21.0903C126.822 20.4998 126.314 19.63 126.314 18.481ZM128.901 18.481C128.901 18.8959 129.167 19.2151 129.698 19.4385C130.246 19.6779 131.004 19.7976 131.971 19.7976C134.001 19.7976 135.017 19.3587 135.017 18.481C135.017 18.082 134.751 17.7628 134.219 17.5234C133.687 17.284 132.938 17.1643 131.971 17.1643C131.02 17.1643 130.271 17.284 129.723 17.5234C129.175 17.7628 128.901 18.082 128.901 18.481ZM131.947 11.778C132.543 11.778 133.026 11.6184 133.397 11.2992C133.784 10.98 133.977 10.5571 133.977 10.0305C133.977 9.48785 133.792 9.04897 133.421 8.71382C133.05 8.37867 132.559 8.2111 131.947 8.2111C131.334 8.2111 130.843 8.38665 130.472 8.73776C130.101 9.07291 129.916 9.50381 129.916 10.0305C129.916 10.5412 130.101 10.9641 130.472 11.2992C130.843 11.6184 131.334 11.778 131.947 11.778Z" fill="black"/>
</svg>

<svg width="149" height="22" fill="none" xmlns="http://www.w3.org/2000/svg"><path d="M141.614 13.43c0-.931.358-1.751 1.074-2.46.761-.71 1.679-1.065 2.753-1.065.94 0 1.768.355 2.485 1.064.716.71 1.074 1.53 1.074 2.46 0 1.065-.336 1.973-1.007 2.727-.672.71-1.522 1.064-2.552 1.064-1.074 0-1.992-.354-2.753-1.064-.716-.753-1.074-1.662-1.074-2.726z" fill="#878787"/><path d="M10.588 17.02H0V.264h2.973v14.005h7.615v2.753zm10.084-3.016l.798 1.94c-1.08.893-2.466 1.34-4.158 1.34-1.74 0-3.159-.519-4.255-1.556-1.063-1.021-1.595-2.386-1.595-4.094 0-1.596.524-2.936 1.571-4.021 1.048-1.086 2.442-1.628 4.182-1.628 1.434 0 2.651.47 3.65 1.412 1 .942 1.499 2.139 1.499 3.591 0 .638-.056 1.133-.17 1.484H14.34c.112.782.459 1.397 1.039 1.844.596.446 1.337.67 2.224.67 1.209 0 2.232-.327 3.07-.982zm-3.578-5.721c-1.58 0-2.53.782-2.852 2.346h5.342c.016-.686-.21-1.245-.677-1.676-.451-.447-1.055-.67-1.813-.67zm8.381 7.421c-1.08-1.07-1.62-2.426-1.62-4.07 0-1.643.54-2.992 1.62-4.045 1.08-1.07 2.514-1.604 4.303-1.604 1.773 0 3.199.534 4.279 1.604C35.151 8.642 35.7 9.99 35.7 11.634c0 1.628-.548 2.985-1.644 4.07-1.095 1.053-2.522 1.58-4.278 1.58-1.789 0-3.223-.527-4.303-1.58zm2.2-6.272c-.564.575-.846 1.309-.846 2.202 0 .894.274 1.636.822 2.227.564.574 1.273.861 2.127.861.87 0 1.58-.287 2.127-.861.564-.575.846-1.317.846-2.227 0-.893-.282-1.627-.846-2.202-.564-.575-1.273-.862-2.127-.862-.838 0-1.54.287-2.103.862zm16.899 2.322h-6.091V9.193h6.091v2.561zm10.636.814c0-.51-.194-.958-.58-1.34a4.029 4.029 0 00-1.402-.958c-.564-.255-1.185-.543-1.862-.862a24.13 24.13 0 01-1.837-1.03c-.564-.366-1.04-.87-1.426-1.507-.37-.655-.556-1.405-.556-2.25 0-1.293.475-2.387 1.426-3.28C49.956.447 51.237 0 52.817 0c2.143 0 3.755.598 4.834 1.795l-1.595 2.203c-.854-.83-1.853-1.245-2.997-1.245-.726 0-1.306.168-1.741.503-.419.335-.628.782-.628 1.34 0 .288.056.559.169.814.112.24.233.44.362.599.145.16.371.335.677.526.322.192.572.336.75.431a141.239 141.239 0 011.861.814c.709.32 1.33.655 1.861 1.006.597.35 1.072.853 1.426 1.508.371.654.556 1.404.556 2.25 0 1.404-.54 2.546-1.62 3.423-1.079.878-2.425 1.317-4.036 1.317a8.68 8.68 0 01-3.36-.694c-1.064-.479-1.789-1.125-2.176-1.94l1.692-2.01a4.652 4.652 0 001.74 1.388c.726.335 1.443.503 2.152.503.742 0 1.338-.176 1.789-.527.451-.35.677-.83.677-1.436zm8.55 4.452h-2.78V.264h2.78V7.23c.807-.782 1.846-1.173 3.12-1.173 2.98 0 4.471 1.572 4.471 4.716v6.248h-2.78v-5.89c0-.797-.21-1.412-.628-1.843-.42-.43-1.016-.646-1.79-.646-.934 0-1.732.327-2.392.982v7.397zm13.608 0h-2.78V6.249h2.78v10.773zm-3.07-14.65c0-.479.161-.862.483-1.15.339-.302.758-.454 1.257-.454.435 0 .806.152 1.112.455.323.303.484.686.484 1.149 0 .51-.161.926-.484 1.245a1.485 1.485 0 01-1.112.479c-.5 0-.918-.16-1.257-.48-.322-.318-.483-.733-.483-1.244zm9.363 19.438h-2.78V6.248h2.78v1.03c.355-.384.838-.695 1.45-.934a5.2 5.2 0 011.91-.36c1.499 0 2.692.511 3.578 1.533.902 1.037 1.354 2.354 1.354 3.95 0 1.675-.532 3.064-1.596 4.165s-2.45 1.652-4.158 1.652c-1.096 0-1.942-.176-2.538-.527v5.051zm2.49-13.238c-.967 0-1.797.391-2.49 1.173V14.1c.66.415 1.426.623 2.297.623.918 0 1.651-.296 2.2-.886.563-.59.845-1.357.845-2.298 0-.894-.257-1.612-.773-2.155-.5-.543-1.193-.814-2.079-.814zM97.14 21.808h-2.78V6.248h2.78v1.03c.355-.384.839-.695 1.451-.934a5.2 5.2 0 011.91-.36c1.498 0 2.691.511 3.577 1.533.903 1.037 1.354 2.354 1.354 3.95 0 1.675-.532 3.064-1.595 4.165-1.064 1.101-2.45 1.652-4.158 1.652-1.096 0-1.942-.176-2.538-.527v5.051zM99.63 8.57c-.966 0-1.796.391-2.49 1.173V14.1c.661.415 1.427.623 2.297.623.919 0 1.652-.296 2.2-.886.564-.59.846-1.357.846-2.298 0-.894-.258-1.612-.774-2.155-.499-.543-1.192-.814-2.079-.814zm11.401 8.45h-2.78V6.249h2.78v10.773zm-3.07-14.65c0-.479.161-.862.483-1.15.339-.302.758-.454 1.257-.454.435 0 .806.152 1.112.455.323.303.484.686.484 1.149 0 .51-.161.926-.484 1.245a1.485 1.485 0 01-1.112.479c-.499 0-.918-.16-1.257-.48-.322-.318-.483-.733-.483-1.244zm9.363 14.65h-2.78V6.249h2.78v1.077c.806-.845 1.845-1.268 3.119-1.268 2.981 0 4.472 1.548 4.472 4.644v6.32h-2.78V11.18c0-1.692-.814-2.538-2.442-2.538-.886 0-1.676.343-2.369 1.03v7.349zm8.99 1.461c0-.846.314-1.548.943-2.107.628-.574 1.491-.981 2.587-1.22a1.458 1.458 0 01-.194-.743c0-.303.081-.558.242-.766-.806-.319-1.442-.798-1.91-1.436a3.754 3.754 0 01-.677-2.178c0-1.102.427-2.051 1.282-2.85.854-.797 1.974-1.196 3.36-1.196 1.047 0 1.974.255 2.78.766l3.287-.718.097 2.202-1.813.407a4 4 0 01.266 1.389c0 1.085-.427 2.026-1.282 2.824-.838.766-1.949 1.15-3.335 1.15h-.194a1.668 1.668 0 00-.048.406c0 .208.048.391.145.55h.121c1.692 0 3.054.296 4.085.887 1.048.606 1.571 1.484 1.571 2.633s-.523 2.027-1.571 2.633c-1.031.59-2.393.886-4.085.886-1.741 0-3.119-.303-4.134-.91-1.015-.59-1.523-1.46-1.523-2.609zm2.587 0c0 .415.266.734.797.957.548.24 1.306.36 2.273.36 2.03 0 3.046-.44 3.046-1.317 0-.399-.266-.718-.798-.958-.532-.239-1.281-.359-2.248-.359-.951 0-1.7.12-2.248.36-.548.239-.822.558-.822.957zm3.046-6.703c.596 0 1.079-.16 1.45-.479.387-.319.58-.742.58-1.268 0-.543-.185-.982-.556-1.317-.371-.335-.862-.503-1.474-.503-.613 0-1.104.176-1.475.527-.371.335-.556.766-.556 1.293 0 .51.185.933.556 1.268.371.32.862.479 1.475.479z" fill="#000"/></svg>
